resources/svg/major-domain-new.svg

<svg xmlns="http://www.w3.org/2000/svg" viewBox="0 0 20 20" fill="currentColor"><path fill-rule="evenodd" d="M2.5 1a1.5 1.5 0 0 0-1.5 1.5v15a1.5 1.5 0 0 0 1.5 1.5h15a1.5 1.5 0 0 0 1.5-1.5v-15a1.5 1.5 0 0 0-1.5-1.5h-15zm6.5 8a1 1 0 0 1 2 0v2h2a1 1 0 1 1 0 2h-2v2a1 1 0 1 1-2 0v-2h-2a1 1 0 1 1 0-2h2v-2zm-2-4v-2h10v2h-10zm-4-2v2h2v-2h-2z"/></svg>

<svg xmlns="http://www.w3.org/2000/svg" viewBox="0 0 20 20" fill="currentColor"><path fill-rule="evenodd" d="M2.5 1A1.5 1.5 0 001 2.5v15A1.5 1.5 0 002.5 19h15a1.5 1.5 0 001.5-1.5v-15A1.5 1.5 0 0017.5 1h-15zM9 9a1 1 0 012 0v2h2a1 1 0 110 2h-2v2a1 1 0 11-2 0v-2H7a1 1 0 110-2h2V9zM7 5V3h10v2H7zM3 3v2h2V3H3z" fill="#5C5F62"/></svg>
